assets/image/facebook.svg

<svg width="13" height="25" viewBox="0 0 13 25" fill="none" xmlns="http://www.w3.org/2000/svg">
<path d="M7.92962 13.297H11.7068L12.2998 9.43652H7.92885V7.3266C7.92885 5.7229 8.44968 4.30083 9.94073 4.30083H12.3367V0.931908C11.9157 0.874716 11.0254 0.749512 9.34308 0.749512C5.83017 0.749512 3.77066 2.61598 3.77066 6.86829V9.43652H0.159424V13.297H3.77066V23.9077C4.48584 24.0159 5.21024 24.0893 5.95384 24.0893C6.62601 24.0893 7.28204 24.0275 7.92962 23.9393V13.297Z" fill="white"/>
</svg>

<svg width="13" height="25" fill="none" xmlns="http://www.w3.org/2000/svg"><path d="M7.93 13.297h3.777l.593-3.86H7.929v-2.11c0-1.604.52-3.026 2.012-3.026h2.396V.93C11.916.876 11.025.75 9.343.75 5.83.75 3.771 2.616 3.771 6.868v2.569H.159v3.86h3.612v10.61c.715.109 1.44.182 2.183.182.672 0 1.328-.061 1.976-.15V13.297Z" fill="#fff"/></svg>
